dist/static/img/context/res-2.svg

<svg width="80" height="80" viewBox="0 0 80 80" fill="none" xmlns="http://www.w3.org/2000/svg">
<rect width="80" height="80" rx="40" fill="#1F5AFF"/>
<g clip-path="url(#clip0_1115_4070)">
<path d="M27.1725 28.4316H21.8311C21.4427 28.4316 21.1279 28.7465 21.1279 29.1348V34.4763C21.1279 34.8646 21.4427 35.1794 21.8311 35.1794H27.1725C27.5608 35.1794 27.8756 34.8646 27.8756 34.4763V29.1348C27.8756 28.7465 27.5608 28.4316 27.1725 28.4316ZM26.4693 33.7732H22.5342V29.838H26.4693V33.7732V33.7732Z" fill="white"/>
<path d="M34.923 28.4316H30.9639C30.5756 28.4316 30.2607 28.7465 30.2607 29.1348C30.2607 29.5231 30.5756 29.8379 30.9639 29.8379H34.923C35.3113 29.8379 35.6261 29.5231 35.6261 29.1348C35.6261 28.7465 35.3113 28.4316 34.923 28.4316Z" fill="white"/>
<path d="M27.1725 38.584H21.8311C21.4427 38.584 21.1279 38.8988 21.1279 39.2871V44.6286C21.1279 45.0169 21.4427 45.3317 21.8311 45.3317H27.1725C27.5608 45.3317 27.8756 45.0169 27.8756 44.6286V39.2871C27.8756 38.8988 27.5608 38.584 27.1725 38.584ZM26.4693 43.9255H22.5342V39.9902H26.4693V43.9255V43.9255Z" fill="white"/>
<path d="M34.923 38.584H30.9639C30.5756 38.584 30.2607 38.8988 30.2607 39.2871C30.2607 39.6754 30.5756 39.9902 30.9639 39.9902H34.923C35.3113 39.9902 35.6261 39.6754 35.6261 39.2871C35.6261 38.8988 35.3113 38.584 34.923 38.584Z" fill="white"/>
<path d="M27.1725 48.7363H21.8311C21.4427 48.7363 21.1279 49.0511 21.1279 49.4395V54.781C21.1279 55.1693 21.4427 55.4841 21.8311 55.4841H27.1725C27.5608 55.4841 27.8756 55.1693 27.8756 54.781V49.4395C27.8756 49.0511 27.5608 48.7363 27.1725 48.7363ZM26.4693 54.0778H22.5342V50.1426H26.4693V54.0778V54.0778Z" fill="white"/>
<path d="M34.923 48.7363H30.9639C30.5756 48.7363 30.2607 49.0511 30.2607 49.4395C30.2607 49.8278 30.5756 50.1426 30.9639 50.1426H34.923C35.3113 50.1426 35.6261 49.8278 35.6261 49.4395C35.6261 49.0511 35.3113 48.7363 34.923 48.7363Z" fill="white"/>
<path d="M42.2278 54.0781H30.9639C30.5756 54.0781 30.2607 54.3929 30.2607 54.7812C30.2607 55.1696 30.5756 55.4844 30.9639 55.4844H42.2278C42.6161 55.4844 42.931 55.1696 42.931 54.7812C42.931 54.3929 42.6161 54.0781 42.2278 54.0781Z" fill="white"/>
<path d="M58.4313 29.6758V17.1758C58.4313 16.7875 58.1164 16.4727 57.7281 16.4727H16.7031C16.3148 16.4727 16 16.7875 16 17.1758V41.3127C16 41.701 16.3148 42.0158 16.7031 42.0158C17.0914 42.0158 17.4062 41.701 17.4062 41.3127V23.1268H45.0313C45.4196 23.1268 45.7344 22.8119 45.7344 22.4236C45.7344 22.0353 45.4196 21.7205 45.0313 21.7205H17.4062V17.8789H57.025V21.7205H48C47.6117 21.7205 47.2968 22.0353 47.2968 22.4236C47.2968 22.8119 47.6117 23.1268 48 23.1268H57.025V28.7545C55.01 27.6026 52.6787 26.9435 50.1961 26.9435C46.3345 26.9435 42.8388 28.538 40.3311 31.1024H30.9641C30.5758 31.1024 30.261 31.4173 30.261 31.8056C30.261 32.1939 30.5758 32.5087 30.9641 32.5087H39.127C38.8248 32.9136 38.545 33.3359 38.2879 33.7732H30.9641C30.5758 33.7732 30.261 34.088 30.261 34.4763C30.261 34.8646 30.5758 35.1794 30.9641 35.1794H37.5662C36.812 36.8835 36.3921 38.7673 36.3921 40.7474C36.3921 40.9174 36.3963 41.0864 36.4024 41.255H30.9641C30.5758 41.255 30.261 41.5698 30.261 41.9581C30.261 42.3464 30.5758 42.6613 30.9641 42.6613H36.5254C36.5851 43.0892 36.664 43.5111 36.7621 43.9258H30.9641C30.5758 43.9258 30.261 44.2406 30.261 44.6289C30.261 45.0172 30.5758 45.332 30.9641 45.332H37.1758C38.0219 47.728 39.511 49.823 41.4358 51.4076H30.9642C30.5759 51.4076 30.2611 51.7224 30.2611 52.1107C30.2611 52.499 30.5759 52.8138 30.9642 52.8138H42.2282C42.5009 52.8138 42.7368 52.6583 42.8535 52.4312C44.9816 53.7734 47.4995 54.5514 50.1962 54.5514C52.6788 54.5514 55.01 53.8922 57.0251 52.7404V62.1214H17.4062V44.382C17.4062 43.9937 17.0914 43.6789 16.7031 43.6789C16.3148 43.6789 16 43.9937 16 44.382V62.8245C16 63.2128 16.3148 63.5277 16.7031 63.5277H57.7281C58.1164 63.5277 58.4313 63.2128 58.4313 62.8245V51.819C61.8088 49.3003 64 45.275 64 40.7473C64 36.2197 61.8088 32.1944 58.4313 29.6758ZM50.1961 53.145C43.36 53.145 37.7984 47.5835 37.7984 40.7473C37.7984 33.9112 43.3599 28.3497 50.1961 28.3497C57.0322 28.3497 62.5938 33.9113 62.5938 40.7473C62.5938 47.5834 57.0322 53.145 50.1961 53.145Z" fill="white"/>
<path d="M58.5467 35.9495C58.353 35.6129 57.923 35.497 57.5865 35.6909C57.2499 35.8846 57.1341 36.3145 57.3279 36.6511C58.0416 37.891 58.419 39.3074 58.419 40.7471C58.419 45.2812 54.7303 48.9698 50.1964 48.9698C45.6624 48.9698 41.9737 45.2811 41.9737 40.7471C41.9737 36.2132 45.6624 32.5245 50.1964 32.5245C52.1833 32.5245 54.1013 33.2426 55.597 34.5466C55.8897 34.8018 56.3338 34.7713 56.5891 34.4786C56.8443 34.1859 56.8138 33.7418 56.5211 33.4866C54.7692 31.9593 52.523 31.1182 50.1963 31.1182C44.8868 31.1182 40.5674 35.4377 40.5674 40.747C40.5674 46.0564 44.8869 50.3759 50.1963 50.3759C55.5056 50.3759 59.8251 46.0564 59.8251 40.747C59.8252 39.0615 59.3831 37.4025 58.5467 35.9495Z" fill="white"/>
<path d="M50.8252 40.1885H49.6721C49.2267 40.1885 48.8643 39.8262 48.8643 39.3807C48.8643 38.9352 49.2266 38.5729 49.6721 38.5729H51.5409C51.5917 38.5729 51.633 38.6142 51.633 38.6649C51.633 39.0532 51.9478 39.368 52.3361 39.368C52.7244 39.368 53.0392 39.0532 53.0392 38.6649C53.0392 37.8387 52.367 37.1666 51.5409 37.1666H50.9518V36.0674C50.9518 35.6791 50.637 35.3643 50.2487 35.3643C49.8604 35.3643 49.5455 35.6791 49.5455 36.0674V37.1704C48.3834 37.2363 47.458 38.2023 47.458 39.3807C47.458 40.6015 48.4512 41.5948 49.6721 41.5948H50.8252C51.2706 41.5948 51.6331 41.9571 51.6331 42.4026C51.6331 42.8481 51.2707 43.2105 50.8252 43.2105H48.9564C48.9056 43.2105 48.8643 43.1691 48.8643 43.1184C48.8643 42.7301 48.5494 42.4153 48.1611 42.4153C47.7728 42.4153 47.458 42.7301 47.458 43.1184C47.458 43.9446 48.1302 44.6167 48.9564 44.6167H49.5455V45.7159C49.5455 46.1043 49.8604 46.4191 50.2487 46.4191C50.637 46.4191 50.9518 46.1043 50.9518 45.7159V44.6129C52.1139 44.5471 53.0393 43.5811 53.0393 42.4026C53.0393 41.1818 52.0461 40.1885 50.8252 40.1885Z" fill="white"/>
<path d="M33.8633 19.0967H32.9766C32.5882 19.0967 32.2734 19.4115 32.2734 19.7998C32.2734 20.1881 32.5882 20.5029 32.9766 20.5029H33.8633C34.2516 20.5029 34.5664 20.1881 34.5664 19.7998C34.5664 19.4115 34.2516 19.0967 33.8633 19.0967Z" fill="white"/>
<path d="M37.6592 19.0967H36.7725C36.3841 19.0967 36.0693 19.4115 36.0693 19.7998C36.0693 20.1881 36.3841 20.5029 36.7725 20.5029H37.6592C38.0476 20.5029 38.3624 20.1881 38.3624 19.7998C38.3624 19.4115 38.0476 19.0967 37.6592 19.0967Z" fill="white"/>
<path d="M41.4551 19.0967H40.5684C40.18 19.0967 39.8652 19.4115 39.8652 19.7998C39.8652 20.1881 40.18 20.5029 40.5684 20.5029H41.4551C41.8435 20.5029 42.1583 20.1881 42.1583 19.7998C42.1583 19.4115 41.8435 19.0967 41.4551 19.0967Z" fill="white"/>
</g>
<defs>
<clipPath id="clip0_1115_4070">
<rect width="48" height="48" fill="white" transform="translate(16 16)"/>
</clipPath>
</defs>
</svg>

<svg width="80" height="80" viewBox="0 0 80 80" fill="none" xmlns="http://www.w3.org/2000/svg"><rect width="80" height="80" rx="40" fill="#1F5AFF"/><g clip-path="url(#clip0_1115_4070)" fill="#fff"><path d="M27.172 28.432h-5.34a.703.703 0 00-.704.703v5.341c0 .389.315.703.703.703h5.341a.703.703 0 00.704-.703v-5.341a.703.703 0 00-.704-.703zm-.703 5.341h-3.935v-3.935h3.935v3.935zm8.454-5.341h-3.96a.703.703 0 000 1.406h3.96a.703.703 0 000-1.406zm-7.751 10.152h-5.34a.703.703 0 00-.704.703v5.342c0 .388.315.703.703.703h5.341a.703.703 0 00.704-.703v-5.342a.703.703 0 00-.704-.703zm-.703 5.341h-3.935V39.99h3.935v3.935zm8.454-5.341h-3.96a.703.703 0 100 1.406h3.96a.703.703 0 000-1.406zm-7.751 10.152h-5.34a.703.703 0 00-.704.704v5.341c0 .388.315.703.703.703h5.341a.703.703 0 00.704-.703V49.44a.703.703 0 00-.704-.704zm-.703 5.342h-3.935v-3.935h3.935v3.935zm8.454-5.342h-3.96a.703.703 0 000 1.407h3.96a.703.703 0 000-1.407zm7.305 5.342H30.964a.703.703 0 100 1.406h11.264a.703.703 0 000-1.406z"/><path d="M58.431 29.676v-12.5a.703.703 0 00-.703-.703H16.703a.703.703 0 00-.703.703v24.137a.703.703 0 001.406 0V23.127h27.625a.703.703 0 000-1.406H17.406v-3.842h39.619v3.841H48a.703.703 0 100 1.407h9.025v5.628a13.718 13.718 0 00-6.829-1.811 13.762 13.762 0 00-9.865 4.158h-9.367a.703.703 0 000 1.407h8.163c-.302.405-.582.827-.84 1.264h-7.323a.703.703 0 000 1.406h6.602a13.724 13.724 0 00-1.164 6.076h-5.438a.703.703 0 000 1.406h5.561c.06.428.139.85.237 1.265h-5.798a.703.703 0 000 1.406h6.212a13.857 13.857 0 004.26 6.076H30.964a.703.703 0 000 1.406h11.264a.703.703 0 00.625-.383 13.72 13.72 0 007.343 2.12c2.483 0 4.814-.659 6.83-1.81v9.38h-39.62V44.382a.703.703 0 00-1.406 0v18.443c0 .388.315.703.703.703h41.025a.703.703 0 00.703-.703V51.819C61.81 49.3 64 45.275 64 40.747c0-4.527-2.191-8.553-5.569-11.071zm-8.235 23.469c-6.836 0-12.398-5.562-12.398-12.398 0-6.836 5.562-12.397 12.398-12.397 6.836 0 12.398 5.561 12.398 12.397s-5.562 12.398-12.398 12.398z"/><path d="M58.547 35.95a.703.703 0 10-1.22.701 8.22 8.22 0 011.092 4.096c0 4.534-3.689 8.223-8.223 8.223-4.534 0-8.222-3.689-8.222-8.223 0-4.534 3.688-8.222 8.222-8.222 1.987 0 3.905.718 5.401 2.022a.703.703 0 00.924-1.06 9.623 9.623 0 00-6.325-2.369c-5.31 0-9.629 4.32-9.629 9.629 0 5.31 4.32 9.629 9.63 9.629 5.309 0 9.628-4.32 9.628-9.629a9.627 9.627 0 00-1.278-4.797z"/><path d="M50.825 40.188h-1.153a.809.809 0 010-1.615h1.869c.05 0 .092.041.092.092a.703.703 0 001.406 0 1.5 1.5 0 00-1.498-1.498h-.59v-1.1a.703.703 0 00-1.406 0v1.103a2.217 2.217 0 00-2.087 2.21c0 1.221.993 2.215 2.214 2.215h1.153a.809.809 0 010 1.616h-1.869a.092.092 0 01-.092-.093.703.703 0 00-1.406 0 1.5 1.5 0 001.498 1.499h.59v1.099a.703.703 0 001.406 0v-1.103a2.217 2.217 0 002.087-2.21 2.217 2.217 0 00-2.214-2.215zM33.863 19.097h-.886a.703.703 0 100 1.406h.886a.703.703 0 000-1.406zm3.797 0h-.887a.703.703 0 100 1.406h.886a.703.703 0 100-1.406zm3.795 0h-.887a.703.703 0 100 1.406h.887a.703.703 0 100-1.406z"/></g><defs><clipPath id="clip0_1115_4070"><path fill="#fff" transform="translate(16 16)" d="M0 0h48v48H0z"/></clipPath></defs></svg>
